icons/code-brand-24.svg

<?xml version="1.0" encoding="UTF-8"?><svg id="icons" xmlns="http://www.w3.org/2000/svg" viewBox="0 0 24 24"><defs><style>.cls-1{fill:none;}.cls-1,.cls-2{stroke-width:0px;}.cls-2{fill:#231f20;}</style></defs><path class="cls-2" d="m20.98999,5.49896c0-1.37891-1.11163-2.49896-2.49005-2.49896s-2.49994,1.12109-2.49994,2.5c0,1.20764.86041,2.21729,2,2.44946v1.55054c0,1.92969-1.57031,3.5-3.5,3.5h-5c-.97974,0-1.86401.40723-2.5,1.05829V5.94934c1.13751-.23267,1.98999-1.24292,1.98999-2.45038,0-1.37891-1.11163-2.49896-2.49005-2.49896s-2.49994,1.12109-2.49994,2.5c0,1.20764.86041,2.21729,2,2.44946v13.10107c-1.13959.23218-2,1.24182-2,2.44946,0,1.37891,1.12158,2.5,2.49994,2.5s2.49005-1.12213,2.49005-2.50104c0-1.20746-.85248-2.21613-1.98999-2.44836v-2.5506c0-1.37891,1.12158-2.5,2.5-2.5h5c2.48145,0,4.5-2.01855,4.5-4.5v-1.55066c1.13751-.23267,1.98999-1.24292,1.98999-2.45038Zm-14.99005-.49896c-.55225,0-.99994-.44775-.99994-1v-1c0-.55231.44769-1,.99994-1h1c.55231,0,1.00006.44769,1.00006,1v1c0,.55225-.44775,1-1.00006,1h-1Zm2.00006,16v1c0,.55225-.44775,1-1.00006,1h-1c-.55225,0-.99994-.44775-.99994-1v-1c0-.55231.44769-1,.99994-1h1c.55231,0,1.00006.44769,1.00006,1Zm12-15c0,.55225-.44775,1-1.00006,1h-1c-.55225,0-.99994-.44775-.99994-1v-1c0-.55231.44769-1,.99994-1h1c.55231,0,1.00006.44769,1.00006,1v1Z"/><rect class="cls-1" width="24" height="24"/></svg>

<svg xmlns="http://www.w3.org/2000/svg" viewBox="0 0 24 24"><path d="M20.99 5.499C20.99 4.12 19.878 3 18.5 3S16 4.121 16 5.5c0 1.208.86 2.217 2 2.45V9.5c0 1.93-1.57 3.5-3.5 3.5h-5c-.98 0-1.864.407-2.5 1.058V5.95A2.499 2.499 0 0 0 8.99 3.5C8.99 2.12 7.878 1 6.5 1S4 2.121 4 3.5c0 1.208.86 2.217 2 2.45v13.1c-1.14.233-2 1.242-2 2.45C4 22.879 5.122 24 6.5 24s2.49-1.122 2.49-2.501A2.496 2.496 0 0 0 7 19.051V16.5C7 15.121 8.122 14 9.5 14h5c2.481 0 4.5-2.019 4.5-4.5V7.95a2.499 2.499 0 0 0 1.99-2.451zM6 5a1 1 0 0 1-1-1V3a1 1 0 0 1 1-1h1a1 1 0 0 1 1 1v1a1 1 0 0 1-1 1H6zm2 16v1a1 1 0 0 1-1 1H6a1 1 0 0 1-1-1v-1a1 1 0 0 1 1-1h1a1 1 0 0 1 1 1zM20 6a1 1 0 0 1-1 1h-1a1 1 0 0 1-1-1V5a1 1 0 0 1 1-1h1a1 1 0 0 1 1 1v1z" fill="#231f20" stroke-width="0"/><path stroke-width="0" fill="none" d="M0 0h24v24H0z"/></svg>
